packages/nodes-base/nodes/Transform/SplitOut/splitOut.svg

<svg xmlns="http://www.w3.org/2000/svg" width="512" height="512" fill="none"><g fill="#9B6DD5" clip-path="url(#a)"><path fill-rule="evenodd" d="M480 148c0-6.627-5.373-12-12-12H322c-6.627 0-12 5.373-12 12v24c0 6.627 5.373 12 12 12h146c6.627 0 12-5.373 12-12zm0 96c0-6.627-5.373-12-12-12H322c-6.627 0-12 5.373-12 12v24c0 6.627 5.373 12 12 12h146c6.627 0 12-5.373 12-12zm0 96c0-6.627-5.373-12-12-12H322c-6.627 0-12 5.373-12 12v24c0 6.627 5.373 12 12 12h146c6.627 0 12-5.373 12-12z" clip-rule="evenodd"/><path d="M438 76c0 6.627-5.373 12-12 12H309.783c-17.673 0-32 14.327-32 32v56c0 26.978-10.272 51.557-27.119 70.039-5.055 5.545-5.055 14.377 0 19.922 16.847 18.482 27.119 43.061 27.119 70.039v56c0 17.673 14.327 32 32 32H426c6.627 0 12 5.373 12 12v24c0 6.627-5.373 12-12 12H309.783c-44.183 0-80-35.817-80-80v-56c0-30.928-25.072-56-56-56a5.783 5.783 0 0 1-5.783-5.783v-36.434a5.783 5.783 0 0 1 5.783-5.783c30.928 0 56-25.072 56-56v-56c0-44.183 35.817-80 80-80H426c6.627 0 12 5.373 12 12z"/><path fill-rule="evenodd" d="M136 244c0-6.627-5.373-12-12-12H12c-6.627 0-12 5.373-12 12v24c0 6.627 5.373 12 12 12h112c6.627 0 12-5.373 12-12z" clip-rule="evenodd"/></g><defs><clipPath id="a"><path fill="#fff" d="M512 0H0v512h512z"/></clipPath></defs></svg>

<svg width="512" height="512" viewBox="0 0 512 512" fill="none" xmlns="http://www.w3.org/2000/svg">
<g clip-path="url(#clip0_1147_350)">
<path fill-rule="evenodd" clip-rule="evenodd" d="M480 148C480 141.373 474.627 136 468 136L322 136C315.373 136 310 141.373 310 148L310 172C310 178.627 315.373 184 322 184L468 184C474.627 184 480 178.627 480 172L480 148Z" fill="#9B6DD5"/>
<path fill-rule="evenodd" clip-rule="evenodd" d="M480 244C480 237.373 474.627 232 468 232L322 232C315.373 232 310 237.373 310 244L310 268C310 274.627 315.373 280 322 280L468 280C474.627 280 480 274.627 480 268L480 244Z" fill="#9B6DD5"/>
<path fill-rule="evenodd" clip-rule="evenodd" d="M480 340C480 333.373 474.627 328 468 328L322 328C315.373 328 310 333.373 310 340L310 364C310 370.627 315.373 376 322 376L468 376C474.627 376 480 370.627 480 364L480 340Z" fill="#9B6DD5"/>
<path d="M438 76C438 82.6274 432.627 88 426 88H309.783C292.11 88 277.783 102.327 277.783 120V176C277.783 202.978 267.511 227.557 250.664 246.039C245.609 251.584 245.609 260.416 250.664 265.961C267.511 284.443 277.783 309.022 277.783 336V392C277.783 409.673 292.11 424 309.783 424H426C432.627 424 438 429.373 438 436V460C438 466.627 432.627 472 426 472H309.783C265.6 472 229.783 436.183 229.783 392V336C229.783 305.072 204.711 280 173.783 280V280C170.589 280 168 277.411 168 274.217V237.783C168 234.589 170.589 232 173.783 232V232C204.711 232 229.783 206.928 229.783 176V120C229.783 75.8172 265.6 40 309.783 40H426C432.627 40 438 45.3726 438 52V76Z" fill="#9B6DD5"/>
<path fill-rule="evenodd" clip-rule="evenodd" d="M136 244C136 237.373 130.627 232 124 232L12 232C5.37257 232 -8.97182e-06 237.373 -8.39243e-06 244L-6.29428e-06 268C-5.71489e-06 274.627 5.37258 280 12 280L124 280C130.627 280 136 274.627 136 268L136 244Z" fill="#9B6DD5"/>
</g>
<defs>
<clipPath id="clip0_1147_350">
<rect width="512" height="512" fill="white" transform="matrix(-1 0 0 1 512 0)"/>
</clipPath>
</defs>
</svg>
